build/flags/SintMaarten.svg

<svg xmlns="http://www.w3.org/2000/svg" fill="none" viewBox="0 0 28 28" focusable="false"><defs><filter id="Sint_Maarten_svg__a"><feColorMatrix values="0 0 0 0 1 0 0 0 0 1 0 0 0 0 1 0 0 0 1 0"/></filter></defs><mask id="Sint_Maarten_svg__b" width="25" height="20" x="3" y="4" maskUnits="userSpaceOnUse"><g filter="url(#Sint_Maarten_svg__a)"><path fill="#1B2F4C" d="M2.99995 4.00019L24.9998 4.00019C26.6566 4.00019 27.9998 5.34334 27.9998 7.00019L27.9998 21.0002C27.9998 22.657 26.6566 24.0002 24.9998 24.0002L2.99995 24.0002L17.0117 14.1572L2.99995 4.00019Z"/><path fill="#F5F5F5" fill-opacity="0" fill-rule="evenodd" d="M16.5791 14.4612L2.99995 24.0002L24.9998 24.0002C26.6566 24.0002 27.9998 22.657 27.9998 21.0002L27.9998 7.00019C27.9998 5.34334 26.6566 4.00019 24.9998 4.00019L2.99995 4.00019L3.68971 4.50019L16.5837 13.8469L17.0117 14.1572L16.5791 14.4612ZM4.54163 4.50019L17.8725 14.1636L4.58155 23.5002L24.9998 23.5002C25.1913 23.5002 25.378 23.4794 25.56 23.4377C25.7004 23.4055 25.838 23.3609 25.9727 23.3039C26.1112 23.2454 26.2423 23.1756 26.3661 23.0947C26.5098 23.0008 26.6436 22.8919 26.7675 22.768C26.8915 22.644 27.0004 22.5102 27.0943 22.3666C27.1752 22.2427 27.2449 22.1116 27.3035 21.9732C27.3605 21.8384 27.4051 21.7009 27.4372 21.5604C27.4789 21.3785 27.4998 21.1917 27.4998 21.0002L27.4998 7.00019C27.4998 6.80868 27.4789 6.62194 27.4372 6.43997C27.4051 6.29955 27.3605 6.16197 27.3035 6.02724C27.2449 5.88877 27.1752 5.75762 27.0942 5.63378C27.0004 5.49016 26.8915 5.35638 26.7675 5.23243C26.6436 5.10846 26.5098 4.99954 26.3661 4.90567C26.2423 4.82475 26.1112 4.75501 25.9727 4.69645C25.838 4.63945 25.7004 4.59487 25.5599 4.5627C25.378 4.52103 25.1912 4.50019 24.9998 4.50019L4.54163 4.50019Z"/></g></mask><path fill="none" d="M0 0H28V28H0z" transform="rotate(-180 14 14)"/><rect width="28" height="20" y="4" fill="#FFF" rx="3"/><rect width="27.5" height="19.5" x=".25" y="4.25" stroke="#F5F5F5" stroke-width=".5" rx="2.75"/><g mask="url(#Sint_Maarten_svg__b)"><path fill="#012A87" d="M.041 14.157H28V34.157H.041z"/><path d="M.291 14.407H27.75V33.907H.291z"/><path fill="#DC171D" d="M.041-5.843H28V14.157H.041z"/><path d="M.291-5.593H27.75V13.907H.291z"/></g><circle cx="6.497" cy="11.854" r="1.846" fill="#F9D90F"/><path fill="#62AFE1" d="M6.49664 11.3717C5.76268 10.9892 4.30937 11.5549 3.61646 11.0557C4.15424 13.3337 3.61649 14.3813 3.61649 15.0796C3.61649 16.9586 5.9668 16.044 6.49664 16.7506C7.02648 16.044 9.37679 16.9584 9.37679 15.0795C9.37679 14.3811 8.83904 13.3335 9.37683 11.0555C8.68392 11.5548 7.2306 10.9892 6.49664 11.3717Z"/><path fill="#DC171D" fill-rule="evenodd" d="M6.49664 11.3717C6.15146 11.1918 5.64716 11.2216 5.13768 11.2518C4.73753 11.2755 4.33418 11.2994 4.00222 11.222C3.85816 11.1884 3.72753 11.1357 3.61646 11.0557C3.65158 11.2045 3.68212 11.348 3.70851 11.4866C3.97819 12.9017 3.81596 13.7948 3.70103 14.4275C3.65496 14.6811 3.61649 14.8928 3.61649 15.0796C3.61649 16.2589 4.54229 16.3378 5.36278 16.4077C5.69974 16.4364 6.01893 16.4636 6.24895 16.5649C6.35125 16.6099 6.4359 16.6696 6.49664 16.7506C6.55738 16.6696 6.64205 16.6099 6.74435 16.5649C6.97436 16.4636 7.29354 16.4364 7.63048 16.4077C8.45097 16.3377 9.37679 16.2587 9.37679 15.0795C9.37679 14.8927 9.33832 14.6809 9.29225 14.4273C9.17732 13.7946 9.01509 12.9016 9.28477 11.4864C9.31117 11.3479 9.3417 11.2043 9.37683 11.0555C9.26575 11.1356 9.13513 11.1882 8.99106 11.2218C8.65909 11.2992 8.25574 11.2754 7.85558 11.2517C7.34611 11.2216 6.84182 11.1918 6.49664 11.3717ZM8.92199 11.5811C8.85736 11.5914 8.78999 11.5993 8.71987 11.6047C8.52935 11.6194 8.23456 11.6149 7.83551 11.5913C7.50889 11.572 7.27403 11.5658 7.13093 11.5727C6.92221 11.5828 6.76318 11.6164 6.65383 11.6733L6.49664 11.7552L6.33945 11.6733C6.23011 11.6164 6.07108 11.5828 5.86236 11.5727C5.71927 11.5658 5.48441 11.5721 5.15779 11.5914C4.75874 11.615 4.46395 11.6195 4.27342 11.6048C4.20331 11.5994 4.13593 11.5916 4.07129 11.5812C4.16396 12.1173 4.20482 12.6284 4.19388 13.1145C4.18817 13.3682 4.16811 13.6256 4.13371 13.8867C4.11381 14.0377 4.08115 14.2382 4.03573 14.4882C3.98302 14.7784 3.95667 14.9755 3.95667 15.0796C3.95667 15.2991 3.99422 15.4746 4.06932 15.606C4.0766 15.6188 4.08434 15.6312 4.09252 15.6434C4.15163 15.731 4.23427 15.8028 4.34044 15.8587C4.45715 15.9201 4.61129 15.9677 4.80286 16.0015C4.92764 16.0235 5.12391 16.0459 5.39167 16.0688C5.72715 16.0973 5.96923 16.1295 6.1179 16.1653C6.26333 16.2003 6.38958 16.2487 6.49664 16.3104C6.60369 16.2487 6.72993 16.2003 6.87535 16.1653C7.02402 16.1295 7.26609 16.0973 7.60157 16.0687C7.86934 16.0459 8.06561 16.0235 8.19039 16.0014C8.38196 15.9676 8.53611 15.92 8.65282 15.8586C8.759 15.8026 8.84165 15.7309 8.90076 15.6432C8.90894 15.6311 8.91667 15.6186 8.92395 15.6059C8.99906 15.4745 9.03661 15.299 9.03661 15.0795C9.03661 14.9754 9.01026 14.7782 8.95755 14.4881C8.91213 14.2381 8.87947 14.0375 8.85958 13.8865C8.82517 13.6254 8.80511 13.368 8.7994 13.1144C8.78846 12.6282 8.82932 12.1171 8.92199 11.5811Z"/><path fill="#FFF" d="M6.09242 12.6992L6.51992 12.261L6.94743 12.6992L6.94743 13.0871L7.78832 13.6834L7.78832 14.3229L8.03929 14.3229L8.03929 15.3217L4.97839 15.3217L4.97839 14.3229L5.20156 14.3229L5.20156 13.6834L6.09242 13.0871L6.09242 12.6992Z"/><path fill="#F9D90F" fill-rule="evenodd" d="M3.48634 16.1878C3.21423 15.8505 3.05109 15.3915 3.00015 14.8516L3.1798 14.8836L3.34856 13.9341L2.67871 13.8151L2.56173 14.4732L2.30249 14.4732C2.30249 15.2748 2.49434 16.0417 2.9568 16.615C3.2923 17.0309 3.75283 17.3232 4.33484 17.4574L4.26132 17.6119C4.76272 17.8505 5.59964 17.99 6.50879 17.99C7.41793 17.99 8.25486 17.8505 8.75626 17.6119L8.67656 17.4444C9.23318 17.3049 9.67564 17.018 10.0007 16.615C10.4632 16.0417 10.655 15.2748 10.655 14.4732L10.396 14.4732L10.279 13.8151L9.60913 13.9341L9.77789 14.8836L9.95737 14.8517C9.90642 15.3916 9.74328 15.8505 9.47118 16.1878C9.14681 16.5899 8.63519 16.8599 7.85366 16.8599L7.85366 17.1858C7.48546 17.2616 7.02294 17.3097 6.50879 17.3097C5.96627 17.3097 5.48125 17.2562 5.10386 17.173L5.10386 16.8599C4.32233 16.8599 3.81071 16.5899 3.48634 16.1878Z"/><path stroke="#BC715F" stroke-linecap="round" stroke-linejoin="round" stroke-width=".51" d="M4.28943 10.6508L6.11255 10.6508L6.51017 10.8584L6.94116 10.6508L8.61225 10.6508"/><path fill="#FFF" d="M7.843 12.009H8.236V12.98H7.843z"/><circle cx="5.06" cy="12.449" r=".41" fill="#F9D90F"/></svg>

<svg xmlns="http://www.w3.org/2000/svg" fill="none" viewBox="0 0 28 28" focusable="false"><path fill="none" d="M28 28H0V0h28z"/><rect width="28" height="20" y="4" fill="#FFF" rx="3"/><rect width="27.5" height="19.5" x=".25" y="4.25" stroke="#F5F5F5" stroke-width=".5" rx="3"/><mask id="Sint_Maarten_svg__a" width="25" height="20" x="3" y="4" mask-type="alpha" maskUnits="userSpaceOnUse"><path fill="#1B2F4C" d="M2.99 4h22c1.66 0 3 1.34 3 3v14c0 1.65-1.34 3-3 3h-22l14.02-9.85z"/></mask><g mask="url(#Sint_Maarten_svg__a)"><path fill="#012A87" d="M.041 14.157H28v20H.041z"/><path d="M.291 14.407H27.75v19.5H.291z"/></g><g mask="url(#Sint_Maarten_svg__a)"><path fill="#DC171D" d="M.041-5.843H28v20H.041z"/><path d="M.291-5.593H27.75v19.5H.291z"/></g><circle cx="6.497" cy="11.854" r="1.846" fill="#F9D90F"/><path fill="#62AFE1" d="M6.49 11.37c-.73-.39-2.19.18-2.88-.32.54 2.28 0 3.33 0 4.02 0 1.88 2.35.97 2.88 1.68.53-.71 2.88.2 2.88-1.68 0-.69-.54-1.74 0-4.02-.69.5-2.14-.07-2.88.32"/><path fill="#DC171D" fill-rule="evenodd" d="M6.49 11.37c-.34-.18-.85-.15-1.36-.12-.4.02-.8.04-1.13-.03-.15-.04-.28-.09-.39-.17.04.15.07.29.09.43.27 1.42.11 2.31 0 2.94-.05.26-.09.47-.09.65 0 1.18.93 1.26 1.75 1.33.33.03.65.06.88.16.11.04.19.1.25.19.06-.09.15-.15.25-.19.23-.1.55-.13.89-.16.82-.07 1.74-.15 1.74-1.33 0-.18-.04-.39-.08-.65-.12-.63-.28-1.52-.01-2.94.03-.14.06-.28.09-.43-.11.08-.24.13-.38.17-.34.07-.74.05-1.14.03-.51-.03-1.01-.06-1.36.12m2.43.21-.21.02q-.28.02-.88-.01-.49-.03-.7-.02-.32.01-.48.1l-.16.08-.16-.08q-.16-.09-.47-.1-.22-.01-.71.02-.6.03-.88.01l-.2-.02q.14.8.12 1.53-.01.38-.06.77-.03.23-.1.6-.08.44-.08.59 0 .33.11.53.02.02.03.04.09.13.25.21.17.1.46.15.19.03.59.06.5.05.72.1t.38.15q.16-.1.38-.15t.73-.1q.4-.03.59-.06.28-.05.46-.15.16-.08.25-.21l.02-.04q.11-.2.11-.53 0-.15-.08-.59-.07-.37-.1-.6-.05-.39-.06-.77-.01-.73.13-1.53"/><path fill="#FFF" d="m6.09 12.69.42-.43.43.43v.39l.84.6v.64h.25v1H4.97v-1h.23v-.64l.89-.6z"/><path fill="#F9D90F" fill-rule="evenodd" d="M3.48 16.18c-.27-.33-.43-.79-.48-1.33l.17.03.17-.95-.67-.12-.11.66H2.3c0 .8.19 1.57.65 2.14.34.42.8.71 1.38.84l-.07.16c.5.24 1.33.38 2.24.38s1.75-.14 2.25-.38l-.08-.17c.56-.14 1-.43 1.33-.83.46-.57.65-1.34.65-2.14h-.26l-.12-.66-.67.12.17.95.18-.03c-.05.54-.21 1-.48 1.33-.33.4-.84.67-1.62.67v.33c-.37.08-.83.12-1.35.12-.54 0-1.02-.05-1.4-.13v-.32c-.78 0-1.29-.27-1.62-.67"/><path stroke="#BC715F" stroke-linecap="round" stroke-linejoin="round" stroke-width=".51" d="M4.28 10.65h1.83l.4.2.43-.2h1.67"/><path fill="#FFF" d="M7.843 12.009h.393v.971h-.393z"/><circle cx="5.06" cy="12.449" r=".41" fill="#F9D90F"/></svg>
